dist/svgs/devui-icons/op/submit-update.svg

<?xml version="1.0" encoding="UTF-8"?>
<svg width="16px" height="16px" viewBox="0 0 16 16" version="1.1" xmlns="http://www.w3.org/2000/svg" xmlns:xlink="http://www.w3.org/1999/xlink">
    <title>操作/更新提交</title>
    <desc>Created with Sketch.</desc>
    <g id="操作/更新提交" stroke="none" stroke-width="1" fill="none" fill-rule="evenodd">
        <path d="M15.7357906,10 L11.9968963,7.02429199 L13.7801488,6.4346599 C12.9184877,3.24101592 9.61308229,1.34576568 6.39731925,2.20150001 C4.78943773,2.62936717 3.5084028,3.66396818 2.73704589,4.99080789 L0.996896283,3.99304254 C2.02537216,2.22392292 3.73341874,0.844454904 5.87726077,0.273965353 C10.1649448,-0.867013747 14.572152,1.65998658 15.7210335,5.91817855 C16.0951539,7.30481126 16.0776255,8.70403109 15.7357906,10 Z M0.261105679,6 L4,8.97570801 L2.21674752,9.5653401 C3.07840863,12.7589841 6.38381399,14.6542343 9.59957703,13.7985 C11.2074586,13.3706328 12.4884935,12.3360318 13.2598504,11.0091921 L15,12.0069575 C13.9715241,13.7760771 12.2634775,15.1555451 10.1196355,15.7260346 C5.83195146,16.8670137 1.42474431,14.3400134 0.275862827,10.0818215 C-0.0982576084,8.69518874 -0.0807292122,7.29596891 0.261105679,6 Z M9,8 L9,12 L7,12 L7,8 L4,8 L8,4 L12,8 L9,8 Z" id="形状" fill="#293040" fill-rule="nonzero"></path>
    </g>
</svg>

<svg xmlns="http://www.w3.org/2000/svg" viewBox="0 0 16 16"><path d="M15.736 10l-3.74-2.976 1.784-.59c-.862-3.193-4.167-5.088-7.383-4.232a6.004 6.004 0 00-3.66 2.789l-1.74-.998A8.005 8.005 0 015.877.274c4.288-1.141 8.695 1.386 9.844 5.644A7.893 7.893 0 0115.736 10zM.26 6L4 8.976l-1.783.59c.861 3.193 4.167 5.088 7.383 4.232a6.004 6.004 0 003.66-2.789l1.74.998a8.005 8.005 0 01-4.88 3.719C5.832 16.867 1.425 14.34.276 10.082A7.893 7.893 0 01.26 6zM9 8v4H7V8H4l4-4 4 4H9z"/></svg>
